X:1
T:Isaac Watts, 1709 (Hymn 9, Book 3)  66. 86. (S. M.)
T:A minor Oliver Holden, 1800
T:Interposition No copyright. Transcribed from Plain Psalmody, 1800.
%%score [ 1 2 3 ]
L:1/8
M:4/4
K:G
V:1 treble nm="Treble" snm="Tr."
V:2 treble-8 nm="Tenor" snm="T."
V:3 bass nm="Bass" snm="B."
V:1
 E4 | A2 A2 c2 A2 | B6 B2 | A2 d2 c2 B2 | A8 | (c2 e2) A2 c2 | d6 e2 | (=f2 e2) (d2 c2) | B6 c2 | %9
 (e2 d2 c2) B2 | A4 ^G4 | A8 |: z4 A4 | c2 B2 A2 c2 | B6 c2 | (e2 d2 ce) dc | B6 B2 | c6 c2 | %18
 ed cB cB A^G | AB cd e2 E2 | (A>B c>d e2) a2 | e>dc/d/edc B2 | A8 :| %23
V:2
 A4 | c2 c2 A2 c2 | e6 e2 | c2 B2 A2 ^G2 | A8 | e4 c2 c2 | B6 c2 | (B2 c2) (B2 A2) | ^G6 A2 | %9
w: 1.~It|cost Him cries and|tears To|bring us near to|God;|Great was our|debt, and|He * ap- *|pears To|
 (c2 B2 A2) d2 | c4 B4 | A8 |: z4 A4 | e2 d2 c2 A2 | ^G6 A2 | (A2 B2 c2) BA | G6 G2 | G6 G2 | %18
w: make~ * * the|pay- ment|good.|There,|on the cur- sed|tree, In|dy- * * ing *|pangs He|lies, Ful-|
 cB AG ed cB | cB A^G A2 B2 | (c>d e>d c2) c2 | c>BA/B/cBA ^G2 | A8 :| %23
w: fills * His * Fath- * er's *|great * de- * cree, and|all~ * * * * our|wants~ * * * * * * sup-|plies.|
V:3
 A,,4 | A,,2 A,,2 A,2 A,2 | E,6 E,2 | A,2 ^G,2 A,2 E,2 | A,,8 | A,4 C2 C2 | G,6 C2 | %7
 (D2 C2) (B,2 A,2) | E,6 E,2 | (A,,2 B,,2 C,2) D,2 | E,4 E,4 | A,,8 |: z4 A,4 | A,2 E,2 A,,2 A,,2 | %14
 E,6 A,2 | (C2 B,2 A,C) G,2 | G,6 G,2 | C,6 C,2 | C,2 C,2 E,2 E,2 | A,2 A,2 E,2 E,2 | A,,6 A,,2 | %21
 E,6 E,2 | A,,8 :| %23

